svg/300/outlined/open_with-fill.svg

<svg xmlns="http://www.w3.org/2000/svg" width="48" height="48" viewBox="0 -960 960 960"><path d="M480-93.847 328.924-244.923l33.23-33.23 95.154 95.154v-197.462h45.384v197.462l95.154-95.154 33.23 33.23L480-93.847ZM241.077-332.77 93.847-480l148.23-148.23 33.23 33.23-92.308 92.308h197.462v45.384H182.999l91.308 91.693-33.23 32.845Zm477.846 0L685.693-366l91.308-91.308H580.154v-45.384h196.847l-91.308-91.693 33.23-32.845L866.153-480l-147.23 147.23ZM457.308-580.154v-196.847L366-685.693l-33.23-33.23L480-866.153l147.23 147.23-33.23 33.23-91.308-91.308v196.847h-45.384Z"/></svg>

<svg xmlns="http://www.w3.org/2000/svg" width="48" height="48" viewBox="0 -960 960 960"><path d="M480-93.85 328.92-244.92l33.23-33.23L457.31-183v-197.46h45.38V-183l95.16-95.15 33.23 33.23L480-93.85ZM241.08-332.77 93.85-480l148.23-148.23L275.31-595 183-502.69h197.46v45.38H183l91.31 91.69-33.23 32.85Zm477.84 0L685.69-366 777-457.31H580.15v-45.38H777l-91.31-91.69 33.23-32.85L866.15-480 718.92-332.77ZM457.31-580.15V-777L366-685.69l-33.23-33.23L480-866.15l147.23 147.23L594-685.69 502.69-777v196.85h-45.38Z"/></svg>
